X:1
T:Some Day
T:John Bunyan Herbert
T:Some Day
T:Public Domain
T:Public Domain
C:John Bunyan Herbert
Z:Public Domain
%%score ( 1 2 ) ( 3 4 )
L:1/8
M:4/4
K:D
V:1 treble 
V:2 treble 
V:3 bass 
V:4 bass 
V:1
 [DF][EA] | [Dd]3 [DF] [DB][^DA] | ([FA][EG]) [EG]2 C[CE] | [DA]3 [EG] [DF][CG] | %4
w: 1.~Some day|Christ will call us|home- * ward To His|we know not where;|
w: 2.~Some day|may come when we’re|work- * ing In the|yard He has given,|
w: 3.~Some day|may be ve- ry|near * us, Near- er|us than we think;|
 ([DF]2 [CE]2) [DA][CG] | [DF]3 [EA] [Dd][D^G] | ([DB][CA]) [CA]2 D[=CD] | [B,B][EG] [DF]2 [CE]2 | %8
w: Some * day we|shall hear Him call-|ing; * Some day we|see Him there. *|
w: Or * it may|be when we’re stray-|ing * In the fields|know for- bidd’n. Some|
w: Ev- * en now|we may be stand-|ing * On the si-|riv- er’s brink. *|
 D4 z2 ||[M:2/4]"^Refrain" [Fd]2 [GB]2 | [EA]2 [DF]2 | [EA]E [DF][D^G] | [EA][EB] [Ec]2 | %13
w: |||||
w: day,|day we|shall an-|swer to His call;|day, some day|
w: |||||
 [Dd]2 (DG) | [EA]2 [DF]2 | AF D[Dd] | [Fd][Gc] [Fd]2 |] %17
w: ||||
w: Christ will *|quer o-|ver all. * *||
w: ||||
V:2
 x2 | x6 | x4 C x | x6 | x6 | x6 | x4 D x | x6 | D4 x2 ||[M:2/4] x4 | x4 | x E x2 | x4 | x2 B2 | %14
w: ||home,||||shall||||||||
w: ||vine-||||we||some|||Some||con-|
w: ||to||||lent||||||||
 x4 | AF D x | x4 |] %17
w: |||
w: |||
w: |||
V:3
 [D,A,][C,A,] | [B,,F,]3 [A,,=C] [G,,B,][B,,B,] | [E,B,]2 [E,B,]2 A,[G,A,] | %3
 [F,A,]3 [C,A,] [D,A,][E,A,] | (A,3 G,) [F,A,][E,A,] | [D,A,]3 [C,A,] [B,,F,]E, | %6
 [A,,E,]2 [A,,G,]2 [B,,F,][A,,F,] | [G,,G,][G,,B,] [A,,A,]2 [A,,G,]2 | [D,F,]4 z2 || %9
[M:2/4] (A,D) [G,D]2 | [A,C]2 [B,D]2 | [A,C][C,A,] [D,A,][B,,E,] | [C,E,][E,^G,] A,=G, | %13
 (A,D) [G,D]2 | [A,C]2 [B,D]2 | A,F, D,[B,,F,] | [A,,A,][A,,A,] [D,A,]2 |] %17
V:4
 x2 | x6 | x4 A, x | x6 | A,4 x2 | x5 E, | x6 | x6 | x6 ||[M:2/4] D,2 x2 | x4 | x4 | x2 A,2 | %13
 F,2 x2 | x4 | A,F, D, x | x4 |] %17

